src/16/refresh.svg

<?xml version="1.0" encoding="iso-8859-1"?>
<!-- Generator: Adobe Illustrator 19.1.0, SVG Export Plug-In . SVG Version: 6.00 Build 0)  -->
<!DOCTYPE svg PUBLIC "-//W3C//DTD SVG 1.1 Tiny//EN" "http://www.w3.org/Graphics/SVG/1.1/DTD/svg11-tiny.dtd">
<svg version="1.1" baseProfile="tiny" id="Layer_1" xmlns="http://www.w3.org/2000/svg" xmlns:xlink="http://www.w3.org/1999/xlink"
	 x="0px" y="0px" viewBox="0 0 16 16" xml:space="preserve">
<path d="M9.013,14.955c-2.36,0-4.524-1.167-5.83-3.156c-0.151-0.231-0.087-0.541,0.144-0.692c0.229-0.151,0.54-0.089,0.692,0.144
	c1.161,1.77,3.119,2.777,5.223,2.7c1.596-0.058,3.073-0.734,4.16-1.904s1.653-2.692,1.594-4.288
	c-0.121-3.293-2.922-5.88-6.193-5.753C7.121,2.066,5.53,2.834,4.438,4.112C3.585,5.111,3.1,6.354,3.023,7.696l1.532-1.752
	c0.183-0.21,0.499-0.228,0.705-0.047C5.469,6.079,5.49,6.395,5.308,6.603L2.922,9.33C2.82,9.447,2.669,9.514,2.514,9.5
	C2.358,9.49,2.216,9.408,2.13,9.278L0.084,6.21C-0.069,5.98-0.007,5.67,0.223,5.517C0.45,5.364,0.762,5.425,0.916,5.655l1.13,1.695
	C2.185,5.901,2.741,4.56,3.678,3.463c1.273-1.49,3.128-2.386,5.087-2.458c3.812-0.124,7.089,2.87,7.23,6.716
	c0.068,1.862-0.593,3.641-1.861,5.006s-2.993,2.155-4.855,2.224C9.189,14.953,9.101,14.955,9.013,14.955z"/>
</svg>

<?xml version="1.0" encoding="utf-8"?>
<!-- Generator: Adobe Illustrator 19.1.0, SVG Export Plug-In . SVG Version: 6.00 Build 0)  -->
<!DOCTYPE svg PUBLIC "-//W3C//DTD SVG 1.1 Tiny//EN" "http://www.w3.org/Graphics/SVG/1.1/DTD/svg11-tiny.dtd">
<svg version="1.1" baseProfile="tiny" id="Layer_1" xmlns="http://www.w3.org/2000/svg" xmlns:xlink="http://www.w3.org/1999/xlink"
	 x="0px" y="0px" viewBox="0 0 16 16" xml:space="preserve">
<path d="M9,15c-2.4,0-4.5-1.2-5.8-3.2c-0.2-0.2-0.1-0.5,0.1-0.7C3.6,11,3.9,11,4,11.2C5.2,13,7.1,14,9.2,14c1.6-0.1,3.1-0.7,4.2-1.9
	s1.7-2.7,1.6-4.3C14.9,4.5,12.1,1.9,8.8,2C7.1,2.1,5.5,2.8,4.4,4.1C3.6,5.1,3.1,6.4,3,7.7l1.5-1.8c0.2-0.2,0.5-0.2,0.7,0
	c0.2,0.2,0.2,0.5,0,0.7L2.9,9.3C2.8,9.4,2.7,9.5,2.5,9.5c-0.2,0-0.3-0.1-0.4-0.2l-2-3.1C-0.1,6,0,5.7,0.2,5.5
	c0.2-0.2,0.5-0.1,0.7,0.1L2,7.4c0.1-1.4,0.7-2.8,1.6-3.9C5,2,6.8,1.1,8.8,1c3.8-0.1,7.1,2.9,7.2,6.7c0.1,1.9-0.6,3.6-1.9,5
	s-3,2.2-4.9,2.2C9.2,15,9.1,15,9,15z"/>
</svg>
